X:66
T:trip i aberystwyth
O:traditional welsh
Z:crm
M:C
L:1/4
Q:1/2=170
K:Bm
BFBB|BAB2|cBBB|AB3|FB3|{c}BAB2|
B{c}BAG|FEF{A}G|F{F}E>FG|G{F}G2A|Bc>BB|AB3:|
